!!!OTL: Die Saufbr&uuml;der (210), S. 461
!!!id: T0394
**kern
*clefG2
*k[]
*G:
*M2/4
{8g
16g
8a
16b
8cc
=2
8ee
8ee
4dd}
=3
{8cc
16cc
16cc
8b
16b
16b
=4
8a
8a
4g}
=5
{8g
16g
16a
8b
16cc
16dd
=6
8ee
8ee
8dd}
8r
=7
{8cc
16cc
16cc
8b
16b
16b
=8
8a
8a
4g}
=9
{8b
8b
8b
8b
=10
8b
8dd
8dd}
8r
=11
{8dd
8cc
8cc
8cc
=12
8ee
8dd
8dd}
8r
=13
{8b
8b
8b
8b
=14
8b
8dd
8dd}
8r
=15
{8dd
8cc
8cc
8cc
=16
4b}
4r
=17
{8b
16b
16b
8b
8b
=18
16b
16b
8dd
16dd
16dd}
8r
=19
{8dd
16cc
16cc
8cc
8cc
=20
8ee
8dd
16dd
16dd}
8r
=21
{8b
8b
8b
8b
=22
8b
8dd
4dd}
=23
{8dd
8cc
8cc
8cc
=24
8b}
4.r
==
*-
!!!minrhy: 16
!!!meters: 2/4 ]  ZZ[12
!!!cut: Die Saufbr&uuml;der (210), S. 461
!!!reg: Luxemburg
!!!trd: Singendes Volk, Esch-Alzette, 1937 posth.
!!!rhy1: X_XX_XX_  X_X_X__
!!!rhy2: X_XXX_XX  X_X_X__
!!!key: T0394  16  G 2/4 ]  ZZ[12
!!!mod: SECHSTONSKALA DUR ?]  AMBITUS[6
!!!kad: 515155535553
!!!akz: 16_42_16_42_33_56_33_53_33_56_33_53_
!!!fot: 'a__b__c__b__d__e__d__bs'dv_ev_d__bs'
!!!for: 'a__b__bv_b__c__c__c__cw_d__e__cv_cw_
!!!fok: '/__\__/__\__/__-__/__\__/__-__/__\__
!! PHRAS[VOLLTAKTIG]
!!!fkt: Trink-, Zechlied
!!!bem: Imbringen, im Wirtshaus, hhh Meisch u.a.
!! THILL; Mathias
!! PR[14] 2K[0] 2G[20] 3K[11] 3G[3] 4A[3] 4Ü[0] 5A[0] 6K[0] 6G[3]
!! 7K[0] 7G[0] 8A[0] MEHR[0] SI[40] ABS[35] SR[20] SP[20]
!! ST[8] 2k[6] 2g[29] 3k[6] 3g[3] 4d[0] 4ü[0] 5d[3] 6k[0] 6g[0]
!! 7k[0] 7g[0] 8d[0] mehr[0] si[46] dm[-6] sr[34] sp[11]
!! 1F[10] 2F[74] 3F[8] 4F[5] LF[0] 2P[0] 3P[3] 4P[0] TRI[0] DF[5] AB[39]
!! TF[0] U3K[0] U3[0] U4[0] U4Ü[0] U5[6] U6K[0] U6[0] U7K[0] U7[0]
!! N1[19] N2K[0] N2[31] N3K[0] N3[28] N4[8] N4Ü[0] N5[8] N6K[0] N6[0]
!!!n7k: 0] N7[0] O1[0] O2K[0] O2[0] O3K[0] O3[0] HÖ[0
!!!RNB: symbol: &uuml;  = u umlaut (UTF-8: Ã¼)
